src/lib/packages/icons/src/assets/line/cursor.svg

<svg width="24" height="24" viewBox="0 0 24 24" fill="none" xmlns="http://www.w3.org/2000/svg">
<path d="M19.9 12.18L9.28998 2.99999C8.37998 2.20999 7.13003 2.02999 6.03003 2.52999C4.93003 3.02999 4.25 4.08999 4.25 5.29999V19.3C4.25 20.33 4.87002 21.22 5.83002 21.59C6.12002 21.7 6.41002 21.75 6.71002 21.75C7.39002 21.75 8.05003 21.46 8.53003 20.93L11.81 17.24C12.24 16.76 12.85 16.48 13.49 16.48H18.3C19.33 16.48 20.23 15.85 20.59 14.89C20.95 13.92 20.68 12.86 19.9 12.18ZM19.19 14.36C19.14 14.5 18.91 14.98 18.3 14.98H13.49C12.42 14.98 11.4 15.44 10.69 16.24L7.40997 19.93C7.00997 20.38 6.50999 20.24 6.35999 20.19C6.21999 20.14 5.75 19.91 5.75 19.3V5.29999C5.75 4.67999 6.09002 4.14999 6.65002 3.88999C6.86002 3.78999 7.08999 3.73999 7.29999 3.73999C7.65999 3.73999 8.00999 3.86999 8.29999 4.11999L18.91 13.3C19.37 13.7 19.23 14.2 19.18 14.35L19.19 14.36Z" fill="currentColor"/>
</svg>

<svg xmlns="http://www.w3.org/2000/svg" width="24" height="24" fill="none"><path fill="currentColor" d="M19.9 12.18 9.29 3c-.91-.79-2.16-.97-3.26-.47-1.1.5-1.78 1.56-1.78 2.77v14c0 1.03.62 1.92 1.58 2.29a2.455 2.455 0 0 0 2.7-.66l3.28-3.69c.43-.48 1.04-.76 1.68-.76h4.81c1.03 0 1.93-.63 2.29-1.59.36-.97.09-2.03-.69-2.71Zm-.71 2.18c-.05.14-.28.62-.89.62h-4.81c-1.07 0-2.09.46-2.8 1.26l-3.28 3.69c-.4.45-.9.31-1.05.26a.927.927 0 0 1-.61-.89v-14c0-.62.34-1.15.9-1.41.21-.1.44-.15.65-.15.36 0 .71.13 1 .38l10.61 9.18c.46.4.32.9.27 1.05l.01.01Z"/></svg>
